images/linkedin.svg

<svg enable-background="new 0 0 382 382" fill="#00f1ec" viewBox="0 0 382 382" xmlns="http://www.w3.org/2000/svg"><path d="m347.445 0h-312.89c-19.084 0-34.555 15.471-34.555 34.555v312.889c0 19.085 15.471 34.556 34.555 34.556h312.889c19.085 0 34.556-15.471 34.556-34.556v-312.889c0-19.084-15.471-34.555-34.555-34.555zm-229.238 329.844c0 5.554-4.502 10.056-10.056 10.056h-42.806c-5.554 0-10.056-4.502-10.056-10.056v-179.441c0-5.554 4.502-10.056 10.056-10.056h42.806c5.554 0 10.056 4.502 10.056 10.056zm-31.459-206.412c-22.459 0-40.666-18.207-40.666-40.666s18.207-40.666 40.666-40.666 40.666 18.207 40.666 40.666-18.206 40.666-40.666 40.666zm255.162 207.222c0 5.106-4.14 9.246-9.246 9.246h-45.934c-5.106 0-9.246-4.14-9.246-9.246v-84.168c0-12.556 3.683-55.021-32.813-55.021-28.309 0-34.051 29.066-35.204 42.11v97.079c0 5.106-4.139 9.246-9.246 9.246h-44.426c-5.106 0-9.246-4.14-9.246-9.246v-181.061c0-5.106 4.14-9.246 9.246-9.246h44.426c5.106 0 9.246 4.14 9.246 9.246v15.655c10.497-15.753 26.097-27.912 59.312-27.912 73.552 0 73.131 68.716 73.131 106.472z"/></svg>

<?xml version="1.0" encoding="iso-8859-1"?>
<!-- Generator: Adobe Illustrator 19.0.0, SVG Export Plug-In . SVG Version: 6.00 Build 0)  -->
<svg version="1.1" id="Layer_1" fill="#00F1EC" xmlns="http://www.w3.org/2000/svg" xmlns:xlink="http://www.w3.org/1999/xlink" x="0px" y="0px"
	 viewBox="0 0 382 382" style="enable-background:new 0 0 382 382;" xml:space="preserve">
<path  d="M347.445,0H34.555C15.471,0,0,15.471,0,34.555v312.889C0,366.529,15.471,382,34.555,382h312.889
	C366.529,382,382,366.529,382,347.444V34.555C382,15.471,366.529,0,347.445,0z M118.207,329.844c0,5.554-4.502,10.056-10.056,10.056
	H65.345c-5.554,0-10.056-4.502-10.056-10.056V150.403c0-5.554,4.502-10.056,10.056-10.056h42.806
	c5.554,0,10.056,4.502,10.056,10.056V329.844z M86.748,123.432c-22.459,0-40.666-18.207-40.666-40.666S64.289,42.1,86.748,42.1
	s40.666,18.207,40.666,40.666S109.208,123.432,86.748,123.432z M341.91,330.654c0,5.106-4.14,9.246-9.246,9.246H286.73
	c-5.106,0-9.246-4.14-9.246-9.246v-84.168c0-12.556,3.683-55.021-32.813-55.021c-28.309,0-34.051,29.066-35.204,42.11v97.079
	c0,5.106-4.139,9.246-9.246,9.246h-44.426c-5.106,0-9.246-4.14-9.246-9.246V149.593c0-5.106,4.14-9.246,9.246-9.246h44.426
	c5.106,0,9.246,4.14,9.246,9.246v15.655c10.497-15.753,26.097-27.912,59.312-27.912c73.552,0,73.131,68.716,73.131,106.472
	L341.91,330.654L341.91,330.654z"/>
<g>
</g>
<g>
</g>
<g>
</g>
<g>
</g>
<g>
</g>
<g>
</g>
<g>
</g>
<g>
</g>
<g>
</g>
<g>
</g>
<g>
</g>
<g>
</g>
<g>
</g>
<g>
</g>
<g>
</g>
</svg>
